X: 10
T:The Homecoming
M:6/8
L:1/8
R:Jig
D:Session tape - Bangor Down 198? (Nigel and Dianna Boullier.)
Z:Bernie Stocks
K:G
D3 DEF | G3 GAB | c2A BAG | A2G E2D | D3 DEF | G3 GAB | cBA BdB | AGF G3 ::\
dBG GBd | ecA ABc | dcB A2G | FDD D3 | dBG GBd | ecA ABc | cBA BdB | AGF G3 :|
<end>
<start>
